packages/foundations/assets/icons/functional/images/social/thumbs_up_20.svg

<svg xmlns="http://www.w3.org/2000/svg" width="20" height="20" fill="none"><g clip-path="url(#a)"><path fill="#1A1C1F" fill-rule="evenodd" d="M13.51 6.999a8.7 8.7 0 0 0 .392-1.575c.126-.882-.083-1.719-.592-2.356A2.87 2.87 0 0 0 11.27 2c-1.615.018-2.14 1.675-2.354 2.359C8.4 5.773 7.625 6.521 6.985 6.924A.99.99 0 0 0 6 5.998H3a1 1 0 0 0-1 1V16a1 1 0 0 0 1 1h3a.99.99 0 0 0 .937-.689C8.71 17.055 11.132 18 12 18c2.916 0 6-3.598 6-7 0-1.094 0-4-3-4zm-9.51 8V7.998h1v7.001zm3-.838V9.132C8.066 8.74 9.824 7.702 10.81 5c.219-.698.369-.921.443-.993.158.033.35.126.493.306q.25.314.176.827c-.172 1.2-.796 2.372-.803 2.384a1 1 0 0 0 .88 1.474h3c.581 0 1 0 1 2 0 2.48-2.327 5-3.993 5-.526-.025-2.889-.929-5.006-1.837" clip-rule="evenodd"/></g><defs><clipPath id="a"><path fill="#fff" d="M0 0h20v20H0z"/></clipPath></defs></svg>

<svg width="20" height="20" viewBox="0 0 20 20" fill="none" xmlns="http://www.w3.org/2000/svg">
<g clip-path="url(#clip0_187_543)">
<path fill-rule="evenodd" clip-rule="evenodd" d="M13.51 6.999C13.671 6.529 13.822 5.985 13.902 5.424C14.028 4.542 13.819 3.705 13.31 3.068C12.822 2.455 12.102 2.067 11.27 2C9.655 2.018 9.13 3.675 8.916 4.359C8.4 5.773 7.625 6.521 6.985 6.924C6.945 6.408 6.526 5.998 6 5.998H3C2.448 5.998 2 6.445 2 6.998V16C2 16.553 2.448 17 3 17H6C6.442 17 6.805 16.709 6.937 16.311C8.71 17.055 11.132 18 12 18C14.916 18 18 14.402 18 11C18 9.906 18 7 15 7L13.51 6.999ZM4 14.999V7.998H5V14.805V14.999H4ZM7 14.161V9.132C8.066 8.74 9.824 7.702 10.81 5C11.029 4.302 11.179 4.079 11.253 4.007C11.411 4.04 11.603 4.133 11.746 4.313C11.912 4.521 11.971 4.799 11.922 5.14C11.75 6.34 11.126 7.512 11.119 7.524C10.952 7.834 10.961 8.21 11.141 8.511C11.321 8.812 11.647 8.998 11.999 8.998H14.999C15.58 8.998 15.999 8.998 15.999 10.998C15.999 13.478 13.672 15.998 12.006 15.998C11.48 15.973 9.117 15.069 7 14.161Z" fill="#1A1C1F"/>
</g>
<defs>
<clipPath id="clip0_187_543">
<rect width="20" height="20" fill="white"/>
</clipPath>
</defs>
</svg>
